src/assets/Icons/Cart1-white.svg

<svg width="24" height="24" viewBox="0 0 24 24" fill='none' xmlns="http://www.w3.org/2000/svg">
<path d="M8.25 20.25C8.66421 20.25 9 19.9142 9 19.5C9 19.0858 8.66421 18.75 8.25 18.75C7.83579 18.75 7.5 19.0858 7.5 19.5C7.5 19.9142 7.83579 20.25 8.25 20.25Z" stroke="white" stroke-width="1.5" stroke-linecap="round" stroke-linejoin="round"/>
<path d="M18.75 20.25C19.1642 20.25 19.5 19.9142 19.5 19.5C19.5 19.0858 19.1642 18.75 18.75 18.75C18.3358 18.75 18 19.0858 18 19.5C18 19.9142 18.3358 20.25 18.75 20.25Z" stroke="white" stroke-width="1.5" stroke-linecap="round" stroke-linejoin="round"/>
<path d="M2.25 3.75H5.25L7.5 16.5H19.5" stroke="white" stroke-width="1.5" stroke-linecap="round" stroke-linejoin="round"/>
<path d="M7.5 12.5H19.1925C19.2792 12.5001 19.3633 12.4701 19.4304 12.4151C19.4975 12.3601 19.5434 12.2836 19.5605 12.1986L20.9105 5.44859C20.9214 5.39417 20.92 5.338 20.9066 5.28414C20.8931 5.23029 20.8679 5.18009 20.8327 5.13717C20.7975 5.09426 20.7532 5.05969 20.703 5.03597C20.6528 5.01225 20.598 4.99996 20.5425 5H6" stroke="white" stroke-width="1.5" stroke-linecap="round" stroke-linejoin="round"/>
</svg>

<svg xmlns="http://www.w3.org/2000/svg" width="24" height="24" fill="none" stroke="#fff" stroke-width="1.5" stroke-linejoin="round" xmlns:v="https://vecta.io/nano"><path d="M8.25 20.25a.75.75 0 1 0 0-1.5.75.75 0 1 0 0 1.5zm10.5 0a.75.75 0 1 0 0-1.5.75.75 0 1 0 0 1.5z"/><path d="M2.25 3.75h3L7.5 16.5h12m-12-4h11.692c.087 0 .171-.03.238-.085s.113-.132.13-.216l1.35-6.75c.011-.054.01-.111-.004-.164s-.039-.104-.074-.147A.37.37 0 0 0 20.543 5H6" stroke-linecap="round"/></svg>
